X:1
T:Domine quis habitabit
T:Giacomo Finetti
T:Source : Ghirlanda Sacra---Venetia---B.Magni ( Ang.Gardano)---1625. Editor : André Vierendeels (04/10/18) Notes : Original clefs : C1, F4 Original note values have been halved in 3-beat measures Music collected by Leonardo Simonetti Figures in BC are notated in original print
T:Domine quis habitabit
T:©
T:©
T:©
T:©
T:©
T:©
T:©
T:©
C:Giacomo Finetti
Z:©
%%score 1 { 2 | 3 }
L:1/8
Q:1/4=120
M:4/4
K:F
V:1 treble nm="Soprano" snm="S"
V:2 treble nm="MusicXML Part"
V:3 bass 
V:1
 G3 G G4 | z dcB c2 c2 | z ABc d2 FF | G4 F4 | c4 z ABc | d4 c4 | z GGG G3 A | A4 G4 | z2 GG G3 G | %9
w: Do- mi- ne|quis ha- bi- ta- bit|in ta- ber- na- cu- lo|tu- o,|aut quis re- qui-|e- scet|in mon- te San- cto|tu- o,|qui in- gre- di-|
 G2 GD E3 E | EFFF F2 FG | G3 G F4 | z2 c2 cc/c/ cc | c2 c2 z ccG | A4 A2 BB | BB BB/B/ B3 c | %16
w: tur si- ne ma- cu-|la et o- pe- ra- tur iu-|sti- ti- am,|qui lo- qui- tur ve- ri-|ta- tem in cor- de|su- o, qui non|e- git do- lum in lin- gua|
 c4 B4 | z ddd dd/d/ dA | =B4 B4 | z2 cc cc cc/c/ | c2 c2 z ccc | c2 cd d4 | c8 | z4 A4 | %24
w: su- a,|nec fe- cit pro- xi- mo su- o|ma- lum|et op- pro- bri- um non ac-|ci- pit ad- ver- sus|pro- xi- mos su-|os|ad|
 G3 G F3 A | G3 G F3 F | E3 E D2 DD | E2 ^F2 G4- | G2 F3 E E2 | D8 |[M:6/4] d2 B2 d2 c4 A2 | %31
w: ni- hi- lum, ad|ni- hi- lum de-|duc- tus est in con-|spec- tu e-|* ius ma- li-|gnus|ti- men- tes au- tem|
 B3 ABc A3 A A2 | D3 DEF G4 ^F2 | G3 B A2 G4 z2 | G3 GAB c4 =B2 | c3 _e d2 c4 z2 | A3 ABc d4 ^c2 | %37
w: Do- mi- num glo- ri- fi- cat,|Do- mi- num glo- ri- fi-|cat ti- men- tes,|Do- mi- num glo- ri- fi-|cat ti- men- tes,|Do- mi- num glo- ri- fi-|
 d3 f e2 d4 z2 | d2 B2 d2 c4 A2 | B3 ABc A3 A A2 | D3 DEF G4 ^F2 |[M:4/4] G8 | A3 A A4 | %43
w: cat ti- men- tes,|ti- men- tes au- tem|Do- mi- num glo- ri- fi- cat,|Do- mi- num glo- ri- fi-|cat,|Do- mi- ne|
 z dAB A2 A2 | z AAA =B2 BB | c4 c4 | A2 A2 z AFE | G4 G4 | z BBB B2 cd | A4 G4 | z GGG G2 GG | %51
w: quis ha- bi- ta- bit|in ta- ber- na- cu- lo|tu- o,|aut quis quis re- qui|e- scet|in mon- te San- cto _|tu- o,|qui iu- rat pro- xi- mo|
 G4- GGGF | E3 E E4 | z2 cc c2 cc | c2 cc cccB | A4 A4 | z2 d2 d>d d2 | dddd dddc | =B4 B4 | %59
w: su- * o et non|de- ci- pit|qui pe- cu- ni- am|su- am non de- dit ad u-|su- ram|et mu- ne- ra|su- per in- no- cen- tem non ac-|ce- pit|
[M:6/4] GA Bc AB G4 z2 | Bc d_e cd B4 z2 | d2 c2 B2 A3 G F2 | GF E2 D2 DE FG EF | D4 z2 D2 E2 ^F2 | %64
w: qui _ fa- * cit _ haec,|qui _ fa _ cit _ haec,|non com- mo- ve- bi- tur|in ae- ter- num qui _ fa- * cit _|haec, non com- mo-|
 G3 G G2 GA Bc AB | G2 cB A2 G2 cB A2 |[M:4/4] G8 | z4 c4- | c4 B4 | A8 |"^b""^#" G8 |] %71
w: ve- bi- tur qui _ fa- * cit _|haec, in ae- ter- num, in ae- ter-|num,|in|_ ae-|ter-|num.|
V:2
 z8 | z8 | z8 | z8 | z8 |"^BC" z8 |"^b" z8 | z8 | z8 | z8 | z8 | z8 |"^-natural" z8 | z8 | z8 | %15
 z8 | z8 | z8 | z8 | z8 | z8 |"^#" z8 | z8 | z8 | z8 | z8 | z8 | z8 | z8 | z8 |[M:6/4] z12 | z12 | %32
 z12 | z12 | z12 | z12 | z12 | z12 | z12 |"^-natural" z12 | z12 |[M:4/4]"^-natural""^#" z8 | z8 | %43
"^#" z8 | z8 | z8 | z8 |"^-natural" z8 | z8 | z8 | z8 | z8 | z8 | z8 | z8 | z8 | z8 | z8 | z8 | %59
[M:6/4] z12 | z12 |"^-natural" z12 | z12 | z12 | z12 | z12 |[M:4/4] z8 | z8 |"^b""^#" z8 | %69
"^b""^#" z8 | z8 |] %71
V:3
 G,,3 G,, G,,4 |"^b" B,,2 A,,G,, F,,2 F,,2 | z F,,G,,A,, B,,2 A,,2 | B,,2 C,2 F,,4- | %4
 F,,4 F,2 _E,C, | B,,4 F,,4 | =B,,4 C,4 |"^#" D,4 G,,4 |"^-natural" G,,8 | =B,,4 C,4- | %10
 C,A,,A,,A,, B,,4 | C,4 F,,4 | F,8 | E,8 | F,4 F,2 B,,2 | _E,4 D,2 E,2 | F,4 B,,4 | =B,,4 D,4 | %18
"^-natural""^-natural" G,,4 G,,4 | C,4 C,4 | F,4 F,4 |"^-natural" E,2 F,2 G,4 | C,8 | F,8 | %24
 C,4 F,,4 | C,4 D,2 B,,2 |"^#""^#" G,,2 A,,2 D,4 |"^#" ^C,2 D,2 B,,4 | A,,8 |"^#" D,8 | %30
[M:6/4] B,,2 G,,2 B,,2 A,,3 G,, F,,2 |"^#" G,,4 G,,2 D,4 D,2 | B,,3 B,, A,,2 =B,,2 C,2 D,2 | %33
 G,,4 D,2 G,,4 z2 | _E,3 E, D,2 E,2 F,2 G,2 | C,4 G,2 C,4 z2 |"^#""^#""^b" F,3 F, E,2 F,2 G,2 A,2 | %37
 D,4 A,2 D,4 z2 | B,,2 G,,2 B,,2 A,,3 G,, F,,2 | G,,4 G,,2 D,4 D,2 | B,,3 B,, A,,2 =B,,2 C,2 D,2 | %41
[M:4/4] G,,8 |"^#" D,8- |"^#" D,8- |"^#" D,8 | C,8 | F,4 D,4 | C,8 | G,,8 |"^#" D,4 G,,4 | C,8 | %51
 =B,,8 | C,8 | F,,4 F,4 | E,8 | F,8 |"^#" D,4 G,4 | ^F,8 |"^-natural""^-natural" G,4 G,,4 | %59
[M:6/4]"^b""^#""^-natural" _E,2 C,2 D,2 G,,4 z2 | G,2 _E,2 F,2 B,,4 z2 | B,,2 F,,2 G,,2 A,,4 B,,2 | %62
"^#""^#""^#" G,,2 A,,2 D,2 B,,2 G,,2 A,,2 |"^#""^#" D,4 z2 D,2 ^C,2 D,2 | %64
 G,,3 G,, G,,2 _E,2 C,2 D,2 | _E,2 C,2 D,2 =B,,2 C,2 D,2 |[M:4/4] G,,4 G,2 F,2 | %67
"^b" _E,2 D,2 C,2 B,,2 | A,,4 G,,4 |"^#" D,8 |"^-natural" G,,8 |] %71

